assets/luts/cinematic_warm.cube
TITLE "AIComics Cinematic Warm"
# 17-point 3D LUT
# Generated by AIComics video quality upgrade pipeline
# Applies: S-curve contrast + warm color cast + teal/orange grade
LUT_3D_SIZE 17
DOMAIN_MIN 0.0 0.0 0.0
DOMAIN_MAX 1.0 1.0 1.0
0.000000 0.000000 0.022050
0.033475 0.000000 0.022050
0.107400 0.000000 0.022050
0.179375 0.000000 0.022050
0.249400 0.000000 0.022050
0.317475 0.000000 0.022050
0.386100 0.000000 0.022050
0.454025 0.000000 0.022050
0.520000 0.000000 0.022050
0.593775 0.000000 0.022050
0.669500 0.000000 0.022050
0.747175 0.000000 0.022050
0.826800 0.000000 0.022050
0.908375 0.000000 0.022050
0.991900 0.000000 0.022050
1.000000 0.000000 0.022050
1.000000 0.000000 0.022050
0.000000 0.053492 0.020491
0.033475 0.053492 0.020491
0.107400 0.053492 0.020491
0.179375 0.053492 0.020491
0.249400 0.053492 0.020491
0.317475 0.053492 0.020491
0.386100 0.053492 0.020491
0.454025 0.053492 0.020491
0.520000 0.053492 0.020491
0.593775 0.053492 0.020491
0.669500 0.053492 0.020491
0.747175 0.053492 0.020491
0.826800 0.053492 0.020491
0.908375 0.053492 0.020491
0.991900 0.053492 0.020491
1.000000 0.053492 0.020491
1.000000 0.053492 0.020491
0.000000 0.123969 0.018966
0.033475 0.123969 0.018966
0.107400 0.123969 0.018966
0.179375 0.123969 0.018966
0.249400 0.123969 0.018966
0.317475 0.123969 0.018966
0.386100 0.123969 0.018966
0.454025 0.123969 0.018966
0.520000 0.123969 0.018966
0.593775 0.123969 0.018966
0.669500 0.123969 0.018966
0.747175 0.123969 0.018966
0.826800 0.123969 0.018966
0.908375 0.123969 0.018966
0.991900 0.123969 0.018966
1.000000 0.123969 0.018966
1.000000 0.123969 0.018966
0.000000 0.192930 0.017473
0.033475 0.192930 0.017473
0.107400 0.192930 0.017473
0.179375 0.192930 0.017473
0.249400 0.192930 0.017473
0.317475 0.192930 0.017473
0.386100 0.192930 0.017473
0.454025 0.192930 0.017473
0.520000 0.192930 0.017473
0.593775 0.192930 0.017473
0.669500 0.192930 0.017473
0.747175 0.192930 0.017473
0.826800 0.192930 0.017473
0.908375 0.192930 0.017473
0.991900 0.192930 0.017473
1.000000 0.192930 0.017473
1.000000 0.192930 0.017473
0.000000 0.260375 0.016012
0.033475 0.260375 0.016012
0.107400 0.260375 0.016012
0.179375 0.260375 0.016012
0.249400 0.260375 0.016012
0.317475 0.260375 0.016012
0.386100 0.260375 0.016012
0.454025 0.260375 0.016012
0.520000 0.260375 0.016012
0.593775 0.260375 0.016012
0.669500 0.260375 0.016012
0.747175 0.260375 0.016012
0.826800 0.260375 0.016012
0.908375 0.260375 0.016012
0.991900 0.260375 0.016012
1.000000 0.260375 0.016012
1.000000 0.260375 0.016012
0.000000 0.326305 0.014585
0.033475 0.326305 0.014585
0.107400 0.326305 0.014585
0.179375 0.326305 0.014585
0.249400 0.326305 0.014585
0.317475 0.326305 0.014585
0.386100 0.326305 0.014585
0.454025 0.326305 0.014585
0.520000 0.326305 0.014585
0.593775 0.326305 0.014585
0.669500 0.326305 0.014585
0.747175 0.326305 0.014585
0.826800 0.326305 0.014585
0.908375 0.326305 0.014585
0.991900 0.326305 0.014585
1.000000 0.326305 0.014585
1.000000 0.326305 0.014585
0.000000 0.390719 0.013191
0.033475 0.390719 0.013191
0.107400 0.390719 0.013191
0.179375 0.390719 0.013191
0.249400 0.390719 0.013191
0.317475 0.390719 0.013191
0.386100 0.390719 0.013191
0.454025 0.390719 0.013191
0.520000 0.390719 0.013191
0.593775 0.390719 0.013191
0.669500 0.390719 0.013191
0.747175 0.390719 0.013191
0.826800 0.390719 0.013191
0.908375 0.390719 0.013191
0.991900 0.390719 0.013191
1.000000 0.390719 0.013191
1.000000 0.390719 0.013191
0.000000 0.453617 0.011829
0.033475 0.453617 0.011829
0.107400 0.453617 0.011829
0.179375 0.453617 0.011829
0.249400 0.453617 0.011829
0.317475 0.453617 0.011829
0.386100 0.453617 0.011829
0.454025 0.453617 0.011829
0.520000 0.453617 0.011829
0.593775 0.453617 0.011829
0.669500 0.453617 0.011829
0.747175 0.453617 0.011829
0.826800 0.453617 0.011829
0.908375 0.453617 0.011829
0.991900 0.453617 0.011829
1.000000 0.453617 0.011829
1.000000 0.453617 0.011829
0.000000 0.515000 0.010500
0.033475 0.515000 0.010500
0.107400 0.515000 0.010500
0.179375 0.515000 0.010500
0.249400 0.515000 0.010500
0.317475 0.515000 0.010500
0.386100 0.515000 0.010500
0.454025 0.515000 0.010500
0.520000 0.515000 0.010500
0.593775 0.515000 0.010500
0.669500 0.515000 0.010500
0.747175 0.515000 0.010500
0.826800 0.515000 0.010500
0.908375 0.515000 0.010500
0.991900 0.515000 0.010500
1.000000 0.515000 0.010500
1.000000 0.515000 0.010500
0.000000 0.582445 0.009040
0.033475 0.582445 0.009040
0.107400 0.582445 0.009040
0.179375 0.582445 0.009040
0.249400 0.582445 0.009040
0.317475 0.582445 0.009040
0.386100 0.582445 0.009040
0.454025 0.582445 0.009040
0.520000 0.582445 0.009040
0.593775 0.582445 0.009040
0.669500 0.582445 0.009040
0.747175 0.582445 0.009040
0.826800 0.582445 0.009040
0.908375 0.582445 0.009040
0.991900 0.582445 0.009040
1.000000 0.582445 0.009040
1.000000 0.582445 0.009040
0.000000 0.651406 0.007547
0.033475 0.651406 0.007547
0.107400 0.651406 0.007547
0.179375 0.651406 0.007547
0.249400 0.651406 0.007547
0.317475 0.651406 0.007547
0.386100 0.651406 0.007547
0.454025 0.651406 0.007547
0.520000 0.651406 0.007547
0.593775 0.651406 0.007547
0.669500 0.651406 0.007547
0.747175 0.651406 0.007547
0.826800 0.651406 0.007547
0.908375 0.651406 0.007547
0.991900 0.651406 0.007547
1.000000 0.651406 0.007547
1.000000 0.651406 0.007547
0.000000 0.721883 0.006021
0.033475 0.721883 0.006021
0.107400 0.721883 0.006021
0.179375 0.721883 0.006021
0.249400 0.721883 0.006021
0.317475 0.721883 0.006021
0.386100 0.721883 0.006021
0.454025 0.721883 0.006021
0.520000 0.721883 0.006021
0.593775 0.721883 0.006021
0.669500 0.721883 0.006021
0.747175 0.721883 0.006021
0.826800 0.721883 0.006021
0.908375 0.721883 0.006021
0.991900 0.721883 0.006021
1.000000 0.721883 0.006021
1.000000 0.721883 0.006021
0.000000 0.793875 0.004463
0.033475 0.793875 0.004463
0.107400 0.793875 0.004463
0.179375 0.793875 0.004463
0.249400 0.793875 0.004463
0.317475 0.793875 0.004463
0.386100 0.793875 0.004463
0.454025 0.793875 0.004463
0.520000 0.793875 0.004463
0.593775 0.793875 0.004463
0.669500 0.793875 0.004463
0.747175 0.793875 0.004463
0.826800 0.793875 0.004463
0.908375 0.793875 0.004463
0.991900 0.793875 0.004463
1.000000 0.793875 0.004463
1.000000 0.793875 0.004463
0.000000 0.867383 0.002871
0.033475 0.867383 0.002871
0.107400 0.867383 0.002871
0.179375 0.867383 0.002871
0.249400 0.867383 0.002871
0.317475 0.867383 0.002871
0.386100 0.867383 0.002871
0.454025 0.867383 0.002871
0.520000 0.867383 0.002871
0.593775 0.867383 0.002871
0.669500 0.867383 0.002871
0.747175 0.867383 0.002871
0.826800 0.867383 0.002871
0.908375 0.867383 0.002871
0.991900 0.867383 0.002871
1.000000 0.867383 0.002871
1.000000 0.867383 0.002871
0.000000 0.942406 0.001247
0.033475 0.942406 0.001247
0.107400 0.942406 0.001247
0.179375 0.942406 0.001247
0.249400 0.942406 0.001247
0.317475 0.942406 0.001247
0.386100 0.942406 0.001247
0.454025 0.942406 0.001247
0.520000 0.942406 0.001247
0.593775 0.942406 0.001247
0.669500 0.942406 0.001247
0.747175 0.942406 0.001247
0.826800 0.942406 0.001247
0.908375 0.942406 0.001247
0.991900 0.942406 0.001247
1.000000 0.942406 0.001247
1.000000 0.942406 0.001247
0.000000 1.000000 0.000000
0.033475 1.000000 0.000000
0.107400 1.000000 0.000000
0.179375 1.000000 0.000000
0.249400 1.000000 0.000000
0.317475 1.000000 0.000000
0.386100 1.000000 0.000000
0.454025 1.000000 0.000000
0.520000 1.000000 0.000000
0.593775 1.000000 0.000000
0.669500 1.000000 0.000000
0.747175 1.000000 0.000000
0.826800 1.000000 0.000000
0.908375 1.000000 0.000000
0.991900 1.000000 0.000000
1.000000 1.000000 0.000000
1.000000 1.000000 0.000000
0.000000 1.000000 0.000000
0.033475 1.000000 0.000000
0.107400 1.000000 0.000000
0.179375 1.000000 0.000000
0.249400 1.000000 0.000000
0.317475 1.000000 0.000000
0.386100 1.000000 0.000000
0.454025 1.000000 0.000000
0.520000 1.000000 0.000000
0.593775 1.000000 0.000000
0.669500 1.000000 0.000000
0.747175 1.000000 0.000000
0.826800 1.000000 0.000000
0.908375 1.000000 0.000000
0.991900 1.000000 0.000000
1.000000 1.000000 0.000000
1.000000 1.000000 0.000000
0.000000 0.000000 0.044331
0.033475 0.000000 0.044331
0.107400 0.000000 0.044331
0.179375 0.000000 0.044331
0.249400 0.000000 0.044331
0.317475 0.000000 0.044331
0.386100 0.000000 0.044331
0.454025 0.000000 0.044331
0.520000 0.000000 0.044331
0.593775 0.000000 0.044331
0.669500 0.000000 0.044331
0.747175 0.000000 0.044331
0.826800 0.000000 0.044331
0.908375 0.000000 0.044331
0.991900 0.000000 0.044331
1.000000 0.000000 0.044331
1.000000 0.000000 0.044331
0.000000 0.053492 0.042773
0.033475 0.053492 0.042773
0.107400 0.053492 0.042773
0.179375 0.053492 0.042773
0.249400 0.053492 0.042773
0.317475 0.053492 0.042773
0.386100 0.053492 0.042773
0.454025 0.053492 0.042773
0.520000 0.053492 0.042773
0.593775 0.053492 0.042773
0.669500 0.053492 0.042773
0.747175 0.053492 0.042773
0.826800 0.053492 0.042773
0.908375 0.053492 0.042773
0.991900 0.053492 0.042773
1.000000 0.053492 0.042773
1.000000 0.053492 0.042773
0.000000 0.123969 0.041247
0.033475 0.123969 0.041247
0.107400 0.123969 0.041247
0.179375 0.123969 0.041247
0.249400 0.123969 0.041247
0.317475 0.123969 0.041247
0.386100 0.123969 0.041247
0.454025 0.123969 0.041247
0.520000 0.123969 0.041247
0.593775 0.123969 0.041247
0.669500 0.123969 0.041247
0.747175 0.123969 0.041247
0.826800 0.123969 0.041247
0.908375 0.123969 0.041247
0.991900 0.123969 0.041247
1.000000 0.123969 0.041247
1.000000 0.123969 0.041247
0.000000 0.192930 0.039754
0.033475 0.192930 0.039754
0.107400 0.192930 0.039754
0.179375 0.192930 0.039754
0.249400 0.192930 0.039754
0.317475 0.192930 0.039754
0.386100 0.192930 0.039754
0.454025 0.192930 0.039754
0.520000 0.192930 0.039754
0.593775 0.192930 0.039754
0.669500 0.192930 0.039754
0.747175 0.192930 0.039754
0.826800 0.192930 0.039754
0.908375 0.192930 0.039754
0.991900 0.192930 0.039754
1.000000 0.192930 0.039754
1.000000 0.192930 0.039754
0.000000 0.260375 0.038294
0.033475 0.260375 0.038294
0.107400 0.260375 0.038294
0.179375 0.260375 0.038294
0.249400 0.260375 0.038294
0.317475 0.260375 0.038294
0.386100 0.260375 0.038294
0.454025 0.260375 0.038294
0.520000 0.260375 0.038294
0.593775 0.260375 0.038294
0.669500 0.260375 0.038294
0.747175 0.260375 0.038294
0.826800 0.260375 0.038294
0.908375 0.260375 0.038294
0.991900 0.260375 0.038294
1.000000 0.260375 0.038294
1.000000 0.260375 0.038294
0.000000 0.326305 0.036866
0.033475 0.326305 0.036866
0.107400 0.326305 0.036866
0.179375 0.326305 0.036866
0.249400 0.326305 0.036866
0.317475 0.326305 0.036866
0.386100 0.326305 0.036866
0.454025 0.326305 0.036866
0.520000 0.326305 0.036866
0.593775 0.326305 0.036866
0.669500 0.326305 0.036866
0.747175 0.326305 0.036866
0.826800 0.326305 0.036866
0.908375 0.326305 0.036866
0.991900 0.326305 0.036866
1.000000 0.326305 0.036866
1.000000 0.326305 0.036866
0.000000 0.390719 0.035472
0.033475 0.390719 0.035472
0.107400 0.390719 0.035472
0.179375 0.390719 0.035472
0.249400 0.390719 0.035472
0.317475 0.390719 0.035472
0.386100 0.390719 0.035472
0.454025 0.390719 0.035472
0.520000 0.390719 0.035472
0.593775 0.390719 0.035472
0.669500 0.390719 0.035472
0.747175 0.390719 0.035472
0.826800 0.390719 0.035472
0.908375 0.390719 0.035472
0.991900 0.390719 0.035472
1.000000 0.390719 0.035472
1.000000 0.390719 0.035472
0.000000 0.453617 0.034110
0.033475 0.453617 0.034110
0.107400 0.453617 0.034110
0.179375 0.453617 0.034110
0.249400 0.453617 0.034110
0.317475 0.453617 0.034110
0.386100 0.453617 0.034110
0.454025 0.453617 0.034110
0.520000 0.453617 0.034110
0.593775 0.453617 0.034110
0.669500 0.453617 0.034110
0.747175 0.453617 0.034110
0.826800 0.453617 0.034110
0.908375 0.453617 0.034110
0.991900 0.453617 0.034110
1.000000 0.453617 0.034110
1.000000 0.453617 0.034110
0.000000 0.515000 0.032781
0.033475 0.515000 0.032781
0.107400 0.515000 0.032781
0.179375 0.515000 0.032781
0.249400 0.515000 0.032781
0.317475 0.515000 0.032781
0.386100 0.515000 0.032781
0.454025 0.515000 0.032781
0.520000 0.515000 0.032781
0.593775 0.515000 0.032781
0.669500 0.515000 0.032781
0.747175 0.515000 0.032781
0.826800 0.515000 0.032781
0.908375 0.515000 0.032781
0.991900 0.515000 0.032781
1.000000 0.515000 0.032781
1.000000 0.515000 0.032781
0.000000 0.582445 0.031321
0.033475 0.582445 0.031321
0.107400 0.582445 0.031321
0.179375 0.582445 0.031321
0.249400 0.582445 0.031321
0.317475 0.582445 0.031321
0.386100 0.582445 0.031321
0.454025 0.582445 0.031321
0.520000 0.582445 0.031321
0.593775 0.582445 0.031321
0.669500 0.582445 0.031321
0.747175 0.582445 0.031321
0.826800 0.582445 0.031321
0.908375 0.582445 0.031321
0.991900 0.582445 0.031321
1.000000 0.582445 0.031321
1.000000 0.582445 0.031321
0.000000 0.651406 0.029828
0.033475 0.651406 0.029828
0.107400 0.651406 0.029828
0.179375 0.651406 0.029828
0.249400 0.651406 0.029828
0.317475 0.651406 0.029828
0.386100 0.651406 0.029828
0.454025 0.651406 0.029828
0.520000 0.651406 0.029828
0.593775 0.651406 0.029828
0.669500 0.651406 0.029828
0.747175 0.651406 0.029828
0.826800 0.651406 0.029828
0.908375 0.651406 0.029828
0.991900 0.651406 0.029828
1.000000 0.651406 0.029828
1.000000 0.651406 0.029828
0.000000 0.721883 0.028302
0.033475 0.721883 0.028302
0.107400 0.721883 0.028302
0.179375 0.721883 0.028302
0.249400 0.721883 0.028302
0.317475 0.721883 0.028302
0.386100 0.721883 0.028302
0.454025 0.721883 0.028302
0.520000 0.721883 0.028302
0.593775 0.721883 0.028302
0.669500 0.721883 0.028302
0.747175 0.721883 0.028302
0.826800 0.721883 0.028302
0.908375 0.721883 0.028302
0.991900 0.721883 0.028302
1.000000 0.721883 0.028302
1.000000 0.721883 0.028302
0.000000 0.793875 0.026744
0.033475 0.793875 0.026744
0.107400 0.793875 0.026744
0.179375 0.793875 0.026744
0.249400 0.793875 0.026744
0.317475 0.793875 0.026744
0.386100 0.793875 0.026744
0.454025 0.793875 0.026744
0.520000 0.793875 0.026744
0.593775 0.793875 0.026744
0.669500 0.793875 0.026744
0.747175 0.793875 0.026744
0.826800 0.793875 0.026744
0.908375 0.793875 0.026744
0.991900 0.793875 0.026744
1.000000 0.793875 0.026744
1.000000 0.793875 0.026744
0.000000 0.867383 0.025152
0.033475 0.867383 0.025152
0.107400 0.867383 0.025152
0.179375 0.867383 0.025152
0.249400 0.867383 0.025152
0.317475 0.867383 0.025152
0.386100 0.867383 0.025152
0.454025 0.867383 0.025152
0.520000 0.867383 0.025152
0.593775 0.867383 0.025152
0.669500 0.867383 0.025152
0.747175 0.867383 0.025152
0.826800 0.867383 0.025152
0.908375 0.867383 0.025152
0.991900 0.867383 0.025152
1.000000 0.867383 0.025152
1.000000 0.867383 0.025152
0.000000 0.942406 0.023528
0.033475 0.942406 0.023528
0.107400 0.942406 0.023528
0.179375 0.942406 0.023528
0.249400 0.942406 0.023528
0.317475 0.942406 0.023528
0.386100 0.942406 0.023528
0.454025 0.942406 0.023528
0.520000 0.942406 0.023528
0.593775 0.942406 0.023528
0.669500 0.942406 0.023528
0.747175 0.942406 0.023528
0.826800 0.942406 0.023528
0.908375 0.942406 0.023528
0.991900 0.942406 0.023528
1.000000 0.942406 0.023528
1.000000 0.942406 0.023528
0.000000 1.000000 0.021871
0.033475 1.000000 0.021871
0.107400 1.000000 0.021871
0.179375 1.000000 0.021871
0.249400 1.000000 0.021871
0.317475 1.000000 0.021871
0.386100 1.000000 0.021871
0.454025 1.000000 0.021871
0.520000 1.000000 0.021871
0.593775 1.000000 0.021871
0.669500 1.000000 0.021871
0.747175 1.000000 0.021871
0.826800 1.000000 0.021871
0.908375 1.000000 0.021871
0.991900 1.000000 0.021871
1.000000 1.000000 0.021871
1.000000 1.000000 0.021871
0.000000 1.000000 0.020181
0.033475 1.000000 0.020181
0.107400 1.000000 0.020181
0.179375 1.000000 0.020181
0.249400 1.000000 0.020181
0.317475 1.000000 0.020181
0.386100 1.000000 0.020181
0.454025 1.000000 0.020181
0.520000 1.000000 0.020181
0.593775 1.000000 0.020181
0.669500 1.000000 0.020181
0.747175 1.000000 0.020181
0.826800 1.000000 0.020181
0.908375 1.000000 0.020181
0.991900 1.000000 0.020181
1.000000 1.000000 0.020181
1.000000 1.000000 0.020181
0.000000 0.000000 0.111175
0.033475 0.000000 0.111175
0.107400 0.000000 0.111175
0.179375 0.000000 0.111175
0.249400 0.000000 0.111175
0.317475 0.000000 0.111175
0.386100 0.000000 0.111175
0.454025 0.000000 0.111175
0.520000 0.000000 0.111175
0.593775 0.000000 0.111175
0.669500 0.000000 0.111175
0.747175 0.000000 0.111175
0.826800 0.000000 0.111175
0.908375 0.000000 0.111175
0.991900 0.000000 0.111175
1.000000 0.000000 0.111175
1.000000 0.000000 0.111175
0.000000 0.053492 0.109616
0.033475 0.053492 0.109616
0.107400 0.053492 0.109616
0.179375 0.053492 0.109616
0.249400 0.053492 0.109616
0.317475 0.053492 0.109616
0.386100 0.053492 0.109616
0.454025 0.053492 0.109616
0.520000 0.053492 0.109616
0.593775 0.053492 0.109616
0.669500 0.053492 0.109616
0.747175 0.053492 0.109616
0.826800 0.053492 0.109616
0.908375 0.053492 0.109616
0.991900 0.053492 0.109616
1.000000 0.053492 0.109616
1.000000 0.053492 0.109616
0.000000 0.123969 0.108091
0.033475 0.123969 0.108091
0.107400 0.123969 0.108091
0.179375 0.123969 0.108091
0.249400 0.123969 0.108091
0.317475 0.123969 0.108091
0.386100 0.123969 0.108091
0.454025 0.123969 0.108091
0.520000 0.123969 0.108091
0.593775 0.123969 0.108091
0.669500 0.123969 0.108091
0.747175 0.123969 0.108091
0.826800 0.123969 0.108091
0.908375 0.123969 0.108091
0.991900 0.123969 0.108091
1.000000 0.123969 0.108091
1.000000 0.123969 0.108091
0.000000 0.192930 0.106598
0.033475 0.192930 0.106598
0.107400 0.192930 0.106598
0.179375 0.192930 0.106598
0.249400 0.192930 0.106598
0.317475 0.192930 0.106598
0.386100 0.192930 0.106598
0.454025 0.192930 0.106598
0.520000 0.192930 0.106598
0.593775 0.192930 0.106598
0.669500 0.192930 0.106598
0.747175 0.192930 0.106598
0.826800 0.192930 0.106598
0.908375 0.192930 0.106598
0.991900 0.192930 0.106598
1.000000 0.192930 0.106598
1.000000 0.192930 0.106598
0.000000 0.260375 0.105137
0.033475 0.260375 0.105137
0.107400 0.260375 0.105137
0.179375 0.260375 0.105137
0.249400 0.260375 0.105137
0.317475 0.260375 0.105137
0.386100 0.260375 0.105137
0.454025 0.260375 0.105137
0.520000 0.260375 0.105137
0.593775 0.260375 0.105137
0.669500 0.260375 0.105137
0.747175 0.260375 0.105137
0.826800 0.260375 0.105137
0.908375 0.260375 0.105137
0.991900 0.260375 0.105137
1.000000 0.260375 0.105137
1.000000 0.260375 0.105137
0.000000 0.326305 0.103710
0.033475 0.326305 0.103710
0.107400 0.326305 0.103710
0.179375 0.326305 0.103710
0.249400 0.326305 0.103710
0.317475 0.326305 0.103710
0.386100 0.326305 0.103710
0.454025 0.326305 0.103710
0.520000 0.326305 0.103710
0.593775 0.326305 0.103710
0.669500 0.326305 0.103710
0.747175 0.326305 0.103710
0.826800 0.326305 0.103710
0.908375 0.326305 0.103710
0.991900 0.326305 0.103710
1.000000 0.326305 0.103710
1.000000 0.326305 0.103710
0.000000 0.390719 0.102316
0.033475 0.390719 0.102316
0.107400 0.390719 0.102316
0.179375 0.390719 0.102316
0.249400 0.390719 0.102316
0.317475 0.390719 0.102316
0.386100 0.390719 0.102316
0.454025 0.390719 0.102316
0.520000 0.390719 0.102316
0.593775 0.390719 0.102316
0.669500 0.390719 0.102316
0.747175 0.390719 0.102316
0.826800 0.390719 0.102316
0.908375 0.390719 0.102316
0.991900 0.390719 0.102316
1.000000 0.390719 0.102316
1.000000 0.390719 0.102316
0.000000 0.453617 0.100954
0.033475 0.453617 0.100954
0.107400 0.453617 0.100954
0.179375 0.453617 0.100954
0.249400 0.453617 0.100954
0.317475 0.453617 0.100954
0.386100 0.453617 0.100954
0.454025 0.453617 0.100954
0.520000 0.453617 0.100954
0.593775 0.453617 0.100954
0.669500 0.453617 0.100954
0.747175 0.453617 0.100954
0.826800 0.453617 0.100954
0.908375 0.453617 0.100954
0.991900 0.453617 0.100954
1.000000 0.453617 0.100954
1.000000 0.453617 0.100954
0.000000 0.515000 0.099625
0.033475 0.515000 0.099625
0.107400 0.515000 0.099625
0.179375 0.515000 0.099625
0.249400 0.515000 0.099625
0.317475 0.515000 0.099625
0.386100 0.515000 0.099625
0.454025 0.515000 0.099625
0.520000 0.515000 0.099625
0.593775 0.515000 0.099625
0.669500 0.515000 0.099625
0.747175 0.515000 0.099625
0.826800 0.515000 0.099625
0.908375 0.515000 0.099625
0.991900 0.515000 0.099625
1.000000 0.515000 0.099625
1.000000 0.515000 0.099625
0.000000 0.582445 0.098165
0.033475 0.582445 0.098165
0.107400 0.582445 0.098165
0.179375 0.582445 0.098165
0.249400 0.582445 0.098165
0.317475 0.582445 0.098165
0.386100 0.582445 0.098165
0.454025 0.582445 0.098165
0.520000 0.582445 0.098165
0.593775 0.582445 0.098165
0.669500 0.582445 0.098165
0.747175 0.582445 0.098165
0.826800 0.582445 0.098165
0.908375 0.582445 0.098165
0.991900 0.582445 0.098165
1.000000 0.582445 0.098165
1.000000 0.582445 0.098165
0.000000 0.651406 0.096672
0.033475 0.651406 0.096672
0.107400 0.651406 0.096672
0.179375 0.651406 0.096672
0.249400 0.651406 0.096672
0.317475 0.651406 0.096672
0.386100 0.651406 0.096672
0.454025 0.651406 0.096672
0.520000 0.651406 0.096672
0.593775 0.651406 0.096672
0.669500 0.651406 0.096672
0.747175 0.651406 0.096672
0.826800 0.651406 0.096672
0.908375 0.651406 0.096672
0.991900 0.651406 0.096672
1.000000 0.651406 0.096672
1.000000 0.651406 0.096672
0.000000 0.721883 0.095146
0.033475 0.721883 0.095146
0.107400 0.721883 0.095146
0.179375 0.721883 0.095146
0.249400 0.721883 0.095146
0.317475 0.721883 0.095146
0.386100 0.721883 0.095146
0.454025 0.721883 0.095146
0.520000 0.721883 0.095146
0.593775 0.721883 0.095146
0.669500 0.721883 0.095146
0.747175 0.721883 0.095146
0.826800 0.721883 0.095146
0.908375 0.721883 0.095146
0.991900 0.721883 0.095146
1.000000 0.721883 0.095146
1.000000 0.721883 0.095146
0.000000 0.793875 0.093587
0.033475 0.793875 0.093587
0.107400 0.793875 0.093587
0.179375 0.793875 0.093587
0.249400 0.793875 0.093587
0.317475 0.793875 0.093587
0.386100 0.793875 0.093587
0.454025 0.793875 0.093587
0.520000 0.793875 0.093587
0.593775 0.793875 0.093587
0.669500 0.793875 0.093587
0.747175 0.793875 0.093587
0.826800 0.793875 0.093587
0.908375 0.793875 0.093587
0.991900 0.793875 0.093587
1.000000 0.793875 0.093587
1.000000 0.793875 0.093587
0.000000 0.867383 0.091996
0.033475 0.867383 0.091996
0.107400 0.867383 0.091996
0.179375 0.867383 0.091996
0.249400 0.867383 0.091996
0.317475 0.867383 0.091996
0.386100 0.867383 0.091996
0.454025 0.867383 0.091996
0.520000 0.867383 0.091996
0.593775 0.867383 0.091996
0.669500 0.867383 0.091996
0.747175 0.867383 0.091996
0.826800 0.867383 0.091996
0.908375 0.867383 0.091996
0.991900 0.867383 0.091996
1.000000 0.867383 0.091996
1.000000 0.867383 0.091996
0.000000 0.942406 0.090372
0.033475 0.942406 0.090372
0.107400 0.942406 0.090372
0.179375 0.942406 0.090372
0.249400 0.942406 0.090372
0.317475 0.942406 0.090372
0.386100 0.942406 0.090372
0.454025 0.942406 0.090372
0.520000 0.942406 0.090372
0.593775 0.942406 0.090372
0.669500 0.942406 0.090372
0.747175 0.942406 0.090372
0.826800 0.942406 0.090372
0.908375 0.942406 0.090372
0.991900 0.942406 0.090372
1.000000 0.942406 0.090372
1.000000 0.942406 0.090372
0.000000 1.000000 0.088715
0.033475 1.000000 0.088715
0.107400 1.000000 0.088715
0.179375 1.000000 0.088715
0.249400 1.000000 0.088715
0.317475 1.000000 0.088715
0.386100 1.000000 0.088715
0.454025 1.000000 0.088715
0.520000 1.000000 0.088715
0.593775 1.000000 0.088715
0.669500 1.000000 0.088715
0.747175 1.000000 0.088715
0.826800 1.000000 0.088715
0.908375 1.000000 0.088715
0.991900 1.000000 0.088715
1.000000 1.000000 0.088715
1.000000 1.000000 0.088715
0.000000 1.000000 0.087025
0.033475 1.000000 0.087025
0.107400 1.000000 0.087025
0.179375 1.000000 0.087025
0.249400 1.000000 0.087025
0.317475 1.000000 0.087025
0.386100 1.000000 0.087025
0.454025 1.000000 0.087025
0.520000 1.000000 0.087025
0.593775 1.000000 0.087025
0.669500 1.000000 0.087025
0.747175 1.000000 0.087025
0.826800 1.000000 0.087025
0.908375 1.000000 0.087025
0.991900 1.000000 0.087025
1.000000 1.000000 0.087025
1.000000 1.000000 0.087025
0.000000 0.000000 0.176581
0.033475 0.000000 0.176581
0.107400 0.000000 0.176581
0.179375 0.000000 0.176581
0.249400 0.000000 0.176581
0.317475 0.000000 0.176581
0.386100 0.000000 0.176581
0.454025 0.000000 0.176581
0.520000 0.000000 0.176581
0.593775 0.000000 0.176581
0.669500 0.000000 0.176581
0.747175 0.000000 0.176581
0.826800 0.000000 0.176581
