assets/luts/cinematic_warm.cube
TITLE "AIComics Cinematic Warm"
# 17-point 3D LUT
# Generated by AIComics video quality upgrade pipeline
# Applies: S-curve contrast + warm color cast + teal/orange grade
LUT_3D_SIZE 9
DOMAIN_MIN 0.0 0.0 0.0
DOMAIN_MAX 1.0 1.0 1.0
0.000000 0.000000 0.022050
0.107400 0.000000 0.022050
0.249400 0.000000 0.022050
0.386100 0.000000 0.022050
0.520000 0.000000 0.022050
0.669500 0.000000 0.022050
0.826800 0.000000 0.022050
0.991900 0.000000 0.022050
1.000000 0.000000 0.022050
0.000000 0.123969 0.018966
0.107400 0.123969 0.018966
0.249400 0.123969 0.018966
0.386100 0.123969 0.018966
0.520000 0.123969 0.018966
0.669500 0.123969 0.018966
0.826800 0.123969 0.018966
0.991900 0.123969 0.018966
1.000000 0.123969 0.018966
0.000000 0.260375 0.016012
0.107400 0.260375 0.016012
0.249400 0.260375 0.016012
0.386100 0.260375 0.016012
0.520000 0.260375 0.016012
0.669500 0.260375 0.016012
0.826800 0.260375 0.016012
0.991900 0.260375 0.016012
1.000000 0.260375 0.016012
0.000000 0.390719 0.013191
0.107400 0.390719 0.013191
0.249400 0.390719 0.013191
0.386100 0.390719 0.013191
0.520000 0.390719 0.013191
0.669500 0.390719 0.013191
0.826800 0.390719 0.013191
0.991900 0.390719 0.013191
1.000000 0.390719 0.013191
0.000000 0.515000 0.010500
0.107400 0.515000 0.010500
0.249400 0.515000 0.010500
0.386100 0.515000 0.010500
0.520000 0.515000 0.010500
0.669500 0.515000 0.010500
0.826800 0.515000 0.010500
0.991900 0.515000 0.010500
1.000000 0.515000 0.010500
0.000000 0.651406 0.007547
0.107400 0.651406 0.007547
0.249400 0.651406 0.007547
0.386100 0.651406 0.007547
0.520000 0.651406 0.007547
0.669500 0.651406 0.007547
0.826800 0.651406 0.007547
0.991900 0.651406 0.007547
1.000000 0.651406 0.007547
0.000000 0.793875 0.004463
0.107400 0.793875 0.004463
0.249400 0.793875 0.004463
0.386100 0.793875 0.004463
0.520000 0.793875 0.004463
0.669500 0.793875 0.004463
0.826800 0.793875 0.004463
0.991900 0.793875 0.004463
1.000000 0.793875 0.004463
0.000000 0.942406 0.001247
0.107400 0.942406 0.001247
0.249400 0.942406 0.001247
0.386100 0.942406 0.001247
0.520000 0.942406 0.001247
0.669500 0.942406 0.001247
0.826800 0.942406 0.001247
0.991900 0.942406 0.001247
1.000000 0.942406 0.001247
0.000000 1.000000 0.000000
0.107400 1.000000 0.000000
0.249400 1.000000 0.000000
0.386100 1.000000 0.000000
0.520000 1.000000 0.000000
0.669500 1.000000 0.000000
0.826800 1.000000 0.000000
0.991900 1.000000 0.000000
1.000000 1.000000 0.000000
0.000000 0.000000 0.111175
0.107400 0.000000 0.111175
0.249400 0.000000 0.111175
0.386100 0.000000 0.111175
0.520000 0.000000 0.111175
0.669500 0.000000 0.111175
0.826800 0.000000 0.111175
0.991900 0.000000 0.111175
1.000000 0.000000 0.111175
0.000000 0.123969 0.108091
0.107400 0.123969 0.108091
0.249400 0.123969 0.108091
0.386100 0.123969 0.108091
0.520000 0.123969 0.108091
0.669500 0.123969 0.108091
0.826800 0.123969 0.108091
0.991900 0.123969 0.108091
1.000000 0.123969 0.108091
0.000000 0.260375 0.105137
0.107400 0.260375 0.105137
0.249400 0.260375 0.105137
0.386100 0.260375 0.105137
0.520000 0.260375 0.105137
0.669500 0.260375 0.105137
0.826800 0.260375 0.105137
0.991900 0.260375 0.105137
1.000000 0.260375 0.105137
0.000000 0.390719 0.102316
0.107400 0.390719 0.102316
0.249400 0.390719 0.102316
0.386100 0.390719 0.102316
0.520000 0.390719 0.102316
0.669500 0.390719 0.102316
0.826800 0.390719 0.102316
0.991900 0.390719 0.102316
1.000000 0.390719 0.102316
0.000000 0.515000 0.099625
0.107400 0.515000 0.099625
0.249400 0.515000 0.099625
0.386100 0.515000 0.099625
0.520000 0.515000 0.099625
0.669500 0.515000 0.099625
0.826800 0.515000 0.099625
0.991900 0.515000 0.099625
1.000000 0.515000 0.099625
0.000000 0.651406 0.096672
0.107400 0.651406 0.096672
0.249400 0.651406 0.096672
0.386100 0.651406 0.096672
0.520000 0.651406 0.096672
0.669500 0.651406 0.096672
0.826800 0.651406 0.096672
0.991900 0.651406 0.096672
1.000000 0.651406 0.096672
0.000000 0.793875 0.093587
0.107400 0.793875 0.093587
0.249400 0.793875 0.093587
0.386100 0.793875 0.093587
0.520000 0.793875 0.093587
0.669500 0.793875 0.093587
0.826800 0.793875 0.093587
0.991900 0.793875 0.093587
1.000000 0.793875 0.093587
0.000000 0.942406 0.090372
0.107400 0.942406 0.090372
0.249400 0.942406 0.090372
0.386100 0.942406 0.090372
0.520000 0.942406 0.090372
0.669500 0.942406 0.090372
0.826800 0.942406 0.090372
0.991900 0.942406 0.090372
1.000000 0.942406 0.090372
0.000000 1.000000 0.087025
0.107400 1.000000 0.087025
0.249400 1.000000 0.087025
0.386100 1.000000 0.087025
0.520000 1.000000 0.087025
0.669500 1.000000 0.087025
0.826800 1.000000 0.087025
0.991900 1.000000 0.087025
1.000000 1.000000 0.087025
0.000000 0.000000 0.240550
0.107400 0.000000 0.240550
0.249400 0.000000 0.240550
0.386100 0.000000 0.240550
0.520000 0.000000 0.240550
0.669500 0.000000 0.240550
0.826800 0.000000 0.240550
0.991900 0.000000 0.240550
1.000000 0.000000 0.240550
0.000000 0.123969 0.237466
0.107400 0.123969 0.237466
0.249400 0.123969 0.237466
0.386100 0.123969 0.237466
0.520000 0.123969 0.237466
0.669500 0.123969 0.237466
0.826800 0.123969 0.237466
0.991900 0.123969 0.237466
1.000000 0.123969 0.237466
0.000000 0.260375 0.234513
0.107400 0.260375 0.234513
0.249400 0.260375 0.234513
0.386100 0.260375 0.234513
0.520000 0.260375 0.234513
0.669500 0.260375 0.234513
0.826800 0.260375 0.234513
0.991900 0.260375 0.234513
1.000000 0.260375 0.234513
0.000000 0.390719 0.231691
0.107400 0.390719 0.231691
0.249400 0.390719 0.231691
0.386100 0.390719 0.231691
0.520000 0.390719 0.231691
0.669500 0.390719 0.231691
0.826800 0.390719 0.231691
0.991900 0.390719 0.231691
1.000000 0.390719 0.231691
0.000000 0.515000 0.229000
0.107400 0.515000 0.229000
0.249400 0.515000 0.229000
0.386100 0.515000 0.229000
0.520000 0.515000 0.229000
0.669500 0.515000 0.229000
0.826800 0.515000 0.229000
0.991900 0.515000 0.229000
1.000000 0.515000 0.229000
0.000000 0.651406 0.226047
0.107400 0.651406 0.226047
0.249400 0.651406 0.226047
0.386100 0.651406 0.226047
0.520000 0.651406 0.226047
0.669500 0.651406 0.226047
0.826800 0.651406 0.226047
0.991900 0.651406 0.226047
1.000000 0.651406 0.226047
0.000000 0.793875 0.222963
0.107400 0.793875 0.222963
0.249400 0.793875 0.222963
0.386100 0.793875 0.222963
0.520000 0.793875 0.222963
0.669500 0.793875 0.222963
0.826800 0.793875 0.222963
0.991900 0.793875 0.222963
1.000000 0.793875 0.222963
0.000000 0.942406 0.219747
0.107400 0.942406 0.219747
0.249400 0.942406 0.219747
0.386100 0.942406 0.219747
0.520000 0.942406 0.219747
0.669500 0.942406 0.219747
0.826800 0.942406 0.219747
0.991900 0.942406 0.219747
1.000000 0.942406 0.219747
0.000000 1.000000 0.216400
0.107400 1.000000 0.216400
0.249400 1.000000 0.216400
0.386100 1.000000 0.216400
0.520000 1.000000 0.216400
0.669500 1.000000 0.216400
0.826800 1.000000 0.216400
0.991900 1.000000 0.216400
1.000000 1.000000 0.216400
0.000000 0.000000 0.364175
0.107400 0.000000 0.364175
0.249400 0.000000 0.364175
0.386100 0.000000 0.364175
0.520000 0.000000 0.364175
0.669500 0.000000 0.364175
0.826800 0.000000 0.364175
0.991900 0.000000 0.364175
1.000000 0.000000 0.364175
0.000000 0.123969 0.361091
0.107400 0.123969 0.361091
0.249400 0.123969 0.361091
0.386100 0.123969 0.361091
0.520000 0.123969 0.361091
0.669500 0.123969 0.361091
0.826800 0.123969 0.361091
0.991900 0.123969 0.361091
1.000000 0.123969 0.361091
0.000000 0.260375 0.358137
0.107400 0.260375 0.358137
0.249400 0.260375 0.358137
0.386100 0.260375 0.358137
0.520000 0.260375 0.358137
0.669500 0.260375 0.358137
0.826800 0.260375 0.358137
0.991900 0.260375 0.358137
1.000000 0.260375 0.358137
0.000000 0.390719 0.355316
0.107400 0.390719 0.355316
0.249400 0.390719 0.355316
0.386100 0.390719 0.355316
0.520000 0.390719 0.355316
0.669500 0.390719 0.355316
0.826800 0.390719 0.355316
0.991900 0.390719 0.355316
1.000000 0.390719 0.355316
0.000000 0.515000 0.352625
0.107400 0.515000 0.352625
0.249400 0.515000 0.352625
0.386100 0.515000 0.352625
0.520000 0.515000 0.352625
0.669500 0.515000 0.352625
0.826800 0.515000 0.352625
0.991900 0.515000 0.352625
1.000000 0.515000 0.352625
0.000000 0.651406 0.349672
0.107400 0.651406 0.349672
0.249400 0.651406 0.349672
0.386100 0.651406 0.349672
0.520000 0.651406 0.349672
0.669500 0.651406 0.349672
0.826800 0.651406 0.349672
0.991900 0.651406 0.349672
1.000000 0.651406 0.349672
0.000000 0.793875 0.346587
0.107400 0.793875 0.346587
0.249400 0.793875 0.346587
0.386100 0.793875 0.346587
0.520000 0.793875 0.346587
0.669500 0.793875 0.346587
0.826800 0.793875 0.346587
0.991900 0.793875 0.346587
1.000000 0.793875 0.346587
0.000000 0.942406 0.343372
0.107400 0.942406 0.343372
0.249400 0.942406 0.343372
0.386100 0.942406 0.343372
0.520000 0.942406 0.343372
0.669500 0.942406 0.343372
0.826800 0.942406 0.343372
0.991900 0.942406 0.343372
1.000000 0.942406 0.343372
0.000000 1.000000 0.340025
0.107400 1.000000 0.340025
0.249400 1.000000 0.340025
0.386100 1.000000 0.340025
0.520000 1.000000 0.340025
0.669500 1.000000 0.340025
0.826800 1.000000 0.340025
0.991900 1.000000 0.340025
1.000000 1.000000 0.340025
0.000000 0.000000 0.482050
0.107400 0.000000 0.482050
0.249400 0.000000 0.482050
0.386100 0.000000 0.482050
0.520000 0.000000 0.482050
0.669500 0.000000 0.482050
0.826800 0.000000 0.482050
0.991900 0.000000 0.482050
1.000000 0.000000 0.482050
0.000000 0.123969 0.478966
0.107400 0.123969 0.478966
0.249400 0.123969 0.478966
0.386100 0.123969 0.478966
0.520000 0.123969 0.478966
0.669500 0.123969 0.478966
0.826800 0.123969 0.478966
0.991900 0.123969 0.478966
1.000000 0.123969 0.478966
0.000000 0.260375 0.476013
0.107400 0.260375 0.476013
0.249400 0.260375 0.476013
0.386100 0.260375 0.476013
0.520000 0.260375 0.476013
0.669500 0.260375 0.476013
0.826800 0.260375 0.476013
0.991900 0.260375 0.476013
1.000000 0.260375 0.476013
0.000000 0.390719 0.473191
0.107400 0.390719 0.473191
0.249400 0.390719 0.473191
0.386100 0.390719 0.473191
0.520000 0.390719 0.473191
0.669500 0.390719 0.473191
0.826800 0.390719 0.473191
0.991900 0.390719 0.473191
1.000000 0.390719 0.473191
0.000000 0.515000 0.470500
0.107400 0.515000 0.470500
0.249400 0.515000 0.470500
0.386100 0.515000 0.470500
0.520000 0.515000 0.470500
0.669500 0.515000 0.470500
0.826800 0.515000 0.470500
0.991900 0.515000 0.470500
1.000000 0.515000 0.470500
0.000000 0.651406 0.467547
0.107400 0.651406 0.467547
0.249400 0.651406 0.467547
0.386100 0.651406 0.467547
0.520000 0.651406 0.467547
0.669500 0.651406 0.467547
0.826800 0.651406 0.467547
0.991900 0.651406 0.467547
1.000000 0.651406 0.467547
0.000000 0.793875 0.464463
0.107400 0.793875 0.464463
0.249400 0.793875 0.464463
0.386100 0.793875 0.464463
0.520000 0.793875 0.464463
0.669500 0.793875 0.464463
0.826800 0.793875 0.464463
0.991900 0.793875 0.464463
1.000000 0.793875 0.464463
0.000000 0.942406 0.461247
0.107400 0.942406 0.461247
0.249400 0.942406 0.461247
0.386100 0.942406 0.461247
0.520000 0.942406 0.461247
0.669500 0.942406 0.461247
0.826800 0.942406 0.461247
0.991900 0.942406 0.461247
1.000000 0.942406 0.461247
0.000000 1.000000 0.457900
0.107400 1.000000 0.457900
0.249400 1.000000 0.457900
0.386100 1.000000 0.457900
0.520000 1.000000 0.457900
0.669500 1.000000 0.457900
0.826800 1.000000 0.457900
0.991900 1.000000 0.457900
1.000000 1.000000 0.457900
0.000000 0.000000 0.611425
0.107400 0.000000 0.611425
0.249400 0.000000 0.611425
0.386100 0.000000 0.611425
0.520000 0.000000 0.611425
0.669500 0.000000 0.611425
0.826800 0.000000 0.611425
0.991900 0.000000 0.611425
1.000000 0.000000 0.611425
0.000000 0.123969 0.608341
0.107400 0.123969 0.608341
0.249400 0.123969 0.608341
0.386100 0.123969 0.608341
0.520000 0.123969 0.608341
0.669500 0.123969 0.608341
0.826800 0.123969 0.608341
0.991900 0.123969 0.608341
1.000000 0.123969 0.608341
0.000000 0.260375 0.605387
0.107400 0.260375 0.605387
0.249400 0.260375 0.605387
0.386100 0.260375 0.605387
0.520000 0.260375 0.605387
0.669500 0.260375 0.605387
0.826800 0.260375 0.605387
0.991900 0.260375 0.605387
1.000000 0.260375 0.605387
0.000000 0.390719 0.602566
0.107400 0.390719 0.602566
0.249400 0.390719 0.602566
0.386100 0.390719 0.602566
0.520000 0.390719 0.602566
0.669500 0.390719 0.602566
0.826800 0.390719 0.602566
0.991900 0.390719 0.602566
1.000000 0.390719 0.602566
0.000000 0.515000 0.599875
0.107400 0.515000 0.599875
0.249400 0.515000 0.599875
0.386100 0.515000 0.599875
0.520000 0.515000 0.599875
0.669500 0.515000 0.599875
0.826800 0.515000 0.599875
0.991900 0.515000 0.599875
1.000000 0.515000 0.599875
0.000000 0.651406 0.596922
0.107400 0.651406 0.596922
0.249400 0.651406 0.596922
0.386100 0.651406 0.596922
0.520000 0.651406 0.596922
0.669500 0.651406 0.596922
0.826800 0.651406 0.596922
0.991900 0.651406 0.596922
1.000000 0.651406 0.596922
0.000000 0.793875 0.593838
0.107400 0.793875 0.593838
0.249400 0.793875 0.593838
0.386100 0.793875 0.593838
0.520000 0.793875 0.593838
0.669500 0.793875 0.593838
0.826800 0.793875 0.593838
0.991900 0.793875 0.593838
1.000000 0.793875 0.593838
0.000000 0.942406 0.590622
0.107400 0.942406 0.590622
0.249400 0.942406 0.590622
0.386100 0.942406 0.590622
0.520000 0.942406 0.590622
0.669500 0.942406 0.590622
0.826800 0.942406 0.590622
0.991900 0.942406 0.590622
1.000000 0.942406 0.590622
0.000000 1.000000 0.587275
0.107400 1.000000 0.587275
0.249400 1.000000 0.587275
0.386100 1.000000 0.587275
0.520000 1.000000 0.587275
0.669500 1.000000 0.587275
0.826800 1.000000 0.587275
0.991900 1.000000 0.587275
1.000000 1.000000 0.587275
0.000000 0.000000 0.746550
0.107400 0.000000 0.746550
0.249400 0.000000 0.746550
0.386100 0.000000 0.746550
0.520000 0.000000 0.746550
0.669500 0.000000 0.746550
0.826800 0.000000 0.746550
0.991900 0.000000 0.746550
1.000000 0.000000 0.746550
0.000000 0.123969 0.743466
0.107400 0.123969 0.743466
0.249400 0.123969 0.743466
0.386100 0.123969 0.743466
0.520000 0.123969 0.743466
0.669500 0.123969 0.743466
0.826800 0.123969 0.743466
0.991900 0.123969 0.743466
1.000000 0.123969 0.743466
0.000000 0.260375 0.740513
0.107400 0.260375 0.740513
0.249400 0.260375 0.740513
0.386100 0.260375 0.740513
0.520000 0.260375 0.740513
0.669500 0.260375 0.740513
0.826800 0.260375 0.740513
0.991900 0.260375 0.740513
1.000000 0.260375 0.740513
0.000000 0.390719 0.737691
0.107400 0.390719 0.737691
0.249400 0.390719 0.737691
0.386100 0.390719 0.737691
0.520000 0.390719 0.737691
0.669500 0.390719 0.737691
0.826800 0.390719 0.737691
0.991900 0.390719 0.737691
1.000000 0.390719 0.737691
0.000000 0.515000 0.735000
0.107400 0.515000 0.735000
0.249400 0.515000 0.735000
0.386100 0.515000 0.735000
0.520000 0.515000 0.735000
0.669500 0.515000 0.735000
0.826800 0.515000 0.735000
0.991900 0.515000 0.735000
1.000000 0.515000 0.735000
0.000000 0.651406 0.732047
0.107400 0.651406 0.732047
0.249400 0.651406 0.732047
0.386100 0.651406 0.732047
0.520000 0.651406 0.732047
0.669500 0.651406 0.732047
0.826800 0.651406 0.732047
0.991900 0.651406 0.732047
1.000000 0.651406 0.732047
0.000000 0.793875 0.728963
0.107400 0.793875 0.728963
0.249400 0.793875 0.728963
0.386100 0.793875 0.728963
0.520000 0.793875 0.728963
0.669500 0.793875 0.728963
0.826800 0.793875 0.728963
0.991900 0.793875 0.728963
1.000000 0.793875 0.728963
0.000000 0.942406 0.725747
0.107400 0.942406 0.725747
0.249400 0.942406 0.725747
0.386100 0.942406 0.725747
0.520000 0.942406 0.725747
0.669500 0.942406 0.725747
0.826800 0.942406 0.725747
0.991900 0.942406 0.725747
1.000000 0.942406 0.725747
0.000000 1.000000 0.722400
0.107400 1.000000 0.722400
0.249400 1.000000 0.722400
0.386100 1.000000 0.722400
0.520000 1.000000 0.722400
0.669500 1.000000 0.722400
0.826800 1.000000 0.722400
0.991900 1.000000 0.722400
1.000000 1.000000 0.722400
0.000000 0.000000 0.887425
0.107400 0.000000 0.887425
0.249400 0.000000 0.887425
0.386100 0.000000 0.887425
0.520000 0.000000 0.887425
0.669500 0.000000 0.887425
0.826800 0.000000 0.887425
0.991900 0.000000 0.887425
1.000000 0.000000 0.887425
0.000000 0.123969 0.884341
0.107400 0.123969 0.884341
0.249400 0.123969 0.884341
0.386100 0.123969 0.884341
0.520000 0.123969 0.884341
0.669500 0.123969 0.884341
0.826800 0.123969 0.884341
0.991900 0.123969 0.884341
1.000000 0.123969 0.884341
0.000000 0.260375 0.881388
0.107400 0.260375 0.881388
0.249400 0.260375 0.881388
0.386100 0.260375 0.881388
0.520000 0.260375 0.881388
0.669500 0.260375 0.881388
0.826800 0.260375 0.881388
0.991900 0.260375 0.881388
1.000000 0.260375 0.881388
0.000000 0.390719 0.878566
0.107400 0.390719 0.878566
0.249400 0.390719 0.878566
0.386100 0.390719 0.878566
0.520000 0.390719 0.878566
0.669500 0.390719 0.878566
0.826800 0.390719 0.878566
0.991900 0.390719 0.878566
1.000000 0.390719 0.878566
0.000000 0.515000 0.875875
0.107400 0.515000 0.875875
0.249400 0.515000 0.875875
0.386100 0.515000 0.875875
0.520000 0.515000 0.875875
0.669500 0.515000 0.875875
0.826800 0.515000 0.875875
0.991900 0.515000 0.875875
1.000000 0.515000 0.875875
0.000000 0.651406 0.872922
0.107400 0.651406 0.872922
0.249400 0.651406 0.872922
0.386100 0.651406 0.872922
0.520000 0.651406 0.872922
0.669500 0.651406 0.872922
0.826800 0.651406 0.872922
0.991900 0.651406 0.872922
1.000000 0.651406 0.872922
0.000000 0.793875 0.869838
0.107400 0.793875 0.869838
0.249400 0.793875 0.869838
0.386100 0.793875 0.869838
0.520000 0.793875 0.869838
0.669500 0.793875 0.869838
0.826800 0.793875 0.869838
0.991900 0.793875 0.869838
1.000000 0.793875 0.869838
0.000000 0.942406 0.866622
0.107400 0.942406 0.866622
0.249400 0.942406 0.866622
0.386100 0.942406 0.866622
0.520000 0.942406 0.866622
0.669500 0.942406 0.866622
0.826800 0.942406 0.866622
0.991900 0.942406 0.866622
1.000000 0.942406 0.866622
0.000000 1.000000 0.863275
0.107400 1.000000 0.863275
0.249400 1.000000 0.863275
0.386100 1.000000 0.863275
0.520000 1.000000 0.863275
0.669500 1.000000 0.863275
0.826800 1.000000 0.863275
0.991900 1.000000 0.863275
1.000000 1.000000 0.863275
0.000000 0.000000 1.000000
0.107400 0.000000 1.000000
0.249400 0.000000 1.000000
0.386100 0.000000 1.000000
0.520000 0.000000 1.000000
0.669500 0.000000 1.000000
0.826800 0.000000 1.000000
0.991900 0.000000 1.000000
1.000000 0.000000 1.000000
0.000000 0.123969 1.000000
0.107400 0.123969 1.000000
0.249400 0.123969 1.000000
0.386100 0.123969 1.000000
0.520000 0.123969 1.000000
0.669500 0.123969 1.000000
0.826800 0.123969 1.000000
0.991900 0.123969 1.000000
1.000000 0.123969 1.000000
0.000000 0.260375 1.000000
0.107400 0.260375 1.000000
0.249400 0.260375 1.000000
0.386100 0.260375 1.000000
0.520000 0.260375 1.000000
0.669500 0.260375 1.000000
0.826800 0.260375 1.000000
0.991900 0.260375 1.000000
1.000000 0.260375 1.000000
0.000000 0.390719 1.000000
0.107400 0.390719 1.000000
0.249400 0.390719 1.000000
0.386100 0.390719 1.000000
0.520000 0.390719 1.000000
0.669500 0.390719 1.000000
0.826800 0.390719 1.000000
0.991900 0.390719 1.000000
1.000000 0.390719 1.000000
0.000000 0.515000 1.000000
0.107400 0.515000 1.000000
0.249400 0.515000 1.000000
0.386100 0.515000 1.000000
0.520000 0.515000 1.000000
0.669500 0.515000 1.000000
0.826800 0.515000 1.000000
0.991900 0.515000 1.000000
1.000000 0.515000 1.000000
0.000000 0.651406 1.000000
0.107400 0.651406 1.000000
0.249400 0.651406 1.000000
0.386100 0.651406 1.000000
0.520000 0.651406 1.000000
0.669500 0.651406 1.000000
0.826800 0.651406 1.000000
0.991900 0.651406 1.000000
1.000000 0.651406 1.000000
0.000000 0.793875 1.000000
0.107400 0.793875 1.000000
0.249400 0.793875 1.000000
0.386100 0.793875 1.000000
0.520000 0.793875 1.000000
0.669500 0.793875 1.000000
0.826800 0.793875 1.000000
0.991900 0.793875 1.000000
1.000000 0.793875 1.000000
0.000000 0.942406 1.000000
0.107400 0.942406 1.000000
0.249400 0.942406 1.000000
0.386100 0.942406 1.000000
0.520000 0.942406 1.000000
0.669500 0.942406 1.000000
0.826800 0.942406 1.000000
0.991900 0.942406 1.000000
1.000000 0.942406 1.000000
0.000000 1.000000 1.000000
0.107400 1.000000 1.000000
0.249400 1.000000 1.000000
0.386100 1.000000 1.000000
0.520000 1.000000 1.000000
0.669500 1.000000 1.000000
0.826800 1.000000 1.000000
0.991900 1.000000 1.000000
1.000000 1.000000 1.000000
