assets/luts/cinematic_warm.cube
TITLE "AIComics Cinematic Warm"
# 17-point 3D LUT
# Generated by AIComics video quality upgrade pipeline
# Applies: S-curve contrast + warm color cast + teal/orange grade
LUT_3D_SIZE 5
DOMAIN_MIN 0.0 0.0 0.0
DOMAIN_MAX 1.0 1.0 1.0
0.000000 0.000000 0.022050
0.249400 0.000000 0.022050
0.520000 0.000000 0.022050
0.826800 0.000000 0.022050
1.000000 0.000000 0.022050
0.000000 0.260375 0.016012
0.249400 0.260375 0.016012
0.520000 0.260375 0.016012
0.826800 0.260375 0.016012
1.000000 0.260375 0.016012
0.000000 0.515000 0.010500
0.249400 0.515000 0.010500
0.520000 0.515000 0.010500
0.826800 0.515000 0.010500
1.000000 0.515000 0.010500
0.000000 0.793875 0.004463
0.249400 0.793875 0.004463
0.520000 0.793875 0.004463
0.826800 0.793875 0.004463
1.000000 0.793875 0.004463
0.000000 1.000000 0.000000
0.249400 1.000000 0.000000
0.520000 1.000000 0.000000
0.826800 1.000000 0.000000
1.000000 1.000000 0.000000
0.000000 0.000000 0.240550
0.249400 0.000000 0.240550
0.520000 0.000000 0.240550
0.826800 0.000000 0.240550
1.000000 0.000000 0.240550
0.000000 0.260375 0.234513
0.249400 0.260375 0.234513
0.520000 0.260375 0.234513
0.826800 0.260375 0.234513
1.000000 0.260375 0.234513
0.000000 0.515000 0.229000
0.249400 0.515000 0.229000
0.520000 0.515000 0.229000
0.826800 0.515000 0.229000
1.000000 0.515000 0.229000
0.000000 0.793875 0.222963
0.249400 0.793875 0.222963
0.520000 0.793875 0.222963
0.826800 0.793875 0.222963
1.000000 0.793875 0.222963
0.000000 1.000000 0.216400
0.249400 1.000000 0.216400
0.520000 1.000000 0.216400
0.826800 1.000000 0.216400
1.000000 1.000000 0.216400
0.000000 0.000000 0.482050
0.249400 0.000000 0.482050
0.520000 0.000000 0.482050
0.826800 0.000000 0.482050
1.000000 0.000000 0.482050
0.000000 0.260375 0.476013
0.249400 0.260375 0.476013
0.520000 0.260375 0.476013
0.826800 0.260375 0.476013
1.000000 0.260375 0.476013
0.000000 0.515000 0.470500
0.249400 0.515000 0.470500
0.520000 0.515000 0.470500
0.826800 0.515000 0.470500
1.000000 0.515000 0.470500
0.000000 0.793875 0.464463
0.249400 0.793875 0.464463
0.520000 0.793875 0.464463
0.826800 0.793875 0.464463
1.000000 0.793875 0.464463
0.000000 1.000000 0.457900
0.249400 1.000000 0.457900
0.520000 1.000000 0.457900
0.826800 1.000000 0.457900
1.000000 1.000000 0.457900
0.000000 0.000000 0.746550
0.249400 0.000000 0.746550
0.520000 0.000000 0.746550
0.826800 0.000000 0.746550
1.000000 0.000000 0.746550
0.000000 0.260375 0.740513
0.249400 0.260375 0.740513
0.520000 0.260375 0.740513
0.826800 0.260375 0.740513
1.000000 0.260375 0.740513
0.000000 0.515000 0.735000
0.249400 0.515000 0.735000
0.520000 0.515000 0.735000
0.826800 0.515000 0.735000
1.000000 0.515000 0.735000
0.000000 0.793875 0.728963
0.249400 0.793875 0.728963
0.520000 0.793875 0.728963
0.826800 0.793875 0.728963
1.000000 0.793875 0.728963
0.000000 1.000000 0.722400
0.249400 1.000000 0.722400
0.520000 1.000000 0.722400
0.826800 1.000000 0.722400
1.000000 1.000000 0.722400
0.000000 0.000000 1.000000
0.249400 0.000000 1.000000
0.520000 0.000000 1.000000
0.826800 0.000000 1.000000
1.000000 0.000000 1.000000
0.000000 0.260375 1.000000
0.249400 0.260375 1.000000
0.520000 0.260375 1.000000
0.826800 0.260375 1.000000
1.000000 0.260375 1.000000
0.000000 0.515000 1.000000
0.249400 0.515000 1.000000
0.520000 0.515000 1.000000
0.826800 0.515000 1.000000
1.000000 0.515000 1.000000
0.000000 0.793875 1.000000
0.249400 0.793875 1.000000
0.520000 0.793875 1.000000
0.826800 0.793875 1.000000
1.000000 0.793875 1.000000
0.000000 1.000000 1.000000
0.249400 1.000000 1.000000
0.520000 1.000000 1.000000
0.826800 1.000000 1.000000
1.000000 1.000000 1.000000
